Icons/TM_Icons/more icons/number-04.svg

<?xml version='1.0' encoding='utf-8'?>
<ns0:svg xmlns:ns0="http://www.w3.org/2000/svg" version="1.1" viewBox="173.0 0.0 1480.0 1480.0" role="img" focusable="false" preserveAspectRatio="xMidYMid meet">
   <ns0:path fill="currentColor" d="M173 60c0 -204.667 72.167 -379.17 216.5 -523.5s318.833 -216.5 523.5 -216.5c204.67 0 379.17 72.1699 523.5 216.5s216.5 318.833 216.5 523.5s-72.1699 379.167 -216.5 523.5s-318.83 216.5 -523.5 216.5c-204.667 0 -379.167 -72.167 -523.5 -216.5 s-216.5 -318.833 -216.5 -523.5zM920 259v56c0 54 -2.83301 84.5 -8.5 91.5s-32.833 12.167 -81.5 15.5l-11 1v81h358v-81l-11 -1c-47.3301 -3.33398 -74.1699 -9.00098 -80.5 -17c-6.33008 -8 -9.5 -38 -9.5 -90v-56h109v-152h-109v-542h-134l-465 573v121h443zM588 107 l332 -406v406h-332z" />
</ns0:svg>

<svg xmlns="http://www.w3.org/2000/svg" width="400" height="200" viewBox="-567 -680 2960 1480"><path fill="currentColor" d="M173 60c0-204.667 72.167-379.17 216.5-523.5S708.333-680 913-680c204.67 0 379.17 72.17 523.5 216.5S1653-144.667 1653 60s-72.17 379.167-216.5 523.5S1117.67 800 913 800q-307 0-523.5-216.5C173 367 173 264.667 173 60m747 199v56q0 81-8.5 91.5C903 417 878.667 418.667 830 422l-11 1v81h358v-81l-11-1c-47.33-3.334-74.17-9.001-80.5-17s-9.5-38-9.5-90v-56h109V107h-109v-542H942L477 138v121zM588 107l332-406v406z"/></svg>
